src/kandidatbanner/minekandidater.svg

<svg width="70" height="70" viewBox="0 0 80 80" fill="none" xmlns="http://www.w3.org/2000/svg">
<g clip-path="url(#clip0_753_12500)">
<path d="M62.5 33.0549C62.5 25.3843 56.6237 19.166 49.375 19.166C45.7019 19.166 42.3811 20.7627 40.0012 23.336C37.6189 20.7627 34.2981 19.166 30.625 19.166C23.3763 19.166 17.5 25.3843 17.5 33.0549C17.5 36.9428 19.0096 40.4576 21.4425 42.9787L21.25 42.9755L40 60.8327L58.75 42.9755L58.5575 42.9787C60.9904 40.4576 62.5 36.9428 62.5 33.0549Z" fill="#E0D8E9"/>
<path d="M7.39766 10.8633L8.83041 10.8633" stroke="#262626" stroke-width="3" stroke-linecap="round" stroke-linejoin="round"/>
<path d="M35.3363 16.5938L36.0526 16.5938" stroke="#262626" stroke-width="3" stroke-linecap="round" stroke-linejoin="round"/>
<path d="M28.8889 16.5938L30.3216 16.5938" stroke="#262626" stroke-width="3" stroke-linecap="round" stroke-linejoin="round"/>
<path d="M13.1287 10.8633L15.9942 10.8633" stroke="#262626" stroke-width="3" stroke-linecap="round" stroke-linejoin="round"/>
<path d="M30.3216 22.3262L33.1871 22.3262" stroke="#262626" stroke-width="3" stroke-linecap="round" stroke-linejoin="round"/>
<path d="M10.9795 16.5938L13.845 16.5938" stroke="#262626" stroke-width="3" stroke-linecap="round" stroke-linejoin="round"/>
<path d="M31.7544 10.8633L34.6199 10.8633" stroke="#262626" stroke-width="3" stroke-linecap="round" stroke-linejoin="round"/>
<path d="M9.54678 22.3262L10.9795 22.3262" stroke="#262626" stroke-width="3" stroke-linecap="round" stroke-linejoin="round"/>
<path d="M21.7252 2.98242V33.0701" stroke="#262626" stroke-width="3" stroke-linecap="round" stroke-linejoin="round"/>
<path d="M18.6923 2.10036L22.0833 2.73027L25.4743 2.10036C29.9755 1.26424 34.597 1.31931 39.0769 2.26245L42.5 2.98311V33.0708L38.6839 32.3619C34.4585 31.5771 30.1248 31.5771 25.8995 32.3619L22.0833 33.0708L18.2672 32.3619C14.0419 31.5771 9.70813 31.5771 5.48281 32.3619L1.66667 33.0708V2.98311L5.08978 2.26245C9.56973 1.31931 14.1912 1.26424 18.6923 2.10036Z" stroke="#262626" stroke-width="3" stroke-linecap="round" stroke-linejoin="round"/>
<path d="M80 80.0008C77.7553 71.0552 69.8385 64.4453 60.4167 64.4453C50.9948 64.4453 43.078 71.0552 40.8333 80.0008" stroke="#262626" stroke-width="3"/>
<path d="M72.4073 46.9451C72.4073 53.6238 66.9516 59.0562 60.199 59.0562C53.4464 59.0562 47.9907 53.6238 47.9907 46.9451C47.9907 40.2664 53.4464 34.834 60.199 34.834C66.9516 34.834 72.4073 40.2664 72.4073 46.9451Z" stroke="#262626" stroke-width="3"/>
</g>
<defs>
<clipPath id="clip0_753_12500">
<rect width="80" height="80" fill="white"/>
</clipPath>
</defs>
</svg>

<svg xmlns="http://www.w3.org/2000/svg" width="70" height="70" fill="none" viewBox="0 0 80 80">
  <g clip-path="url(#a)">
    <path fill="#E0D8E9" d="M62.5 33.055c0-7.67-5.876-13.889-13.125-13.889-3.673 0-6.994 1.597-9.374 4.17-2.382-2.573-5.703-4.17-9.376-4.17-7.249 0-13.125 6.218-13.125 13.889 0 3.888 1.51 7.403 3.942 9.924l-.192-.004L40 60.834l18.75-17.858-.193.004c2.433-2.521 3.943-6.036 3.943-9.924Z"/>
    <path stroke="#262626" stroke-linecap="round" stroke-linejoin="round" stroke-width="3" d="M7.398 10.863H8.83M35.336 16.594h.717M28.889 16.594h1.433M13.129 10.863h2.865M30.322 22.326h2.865M10.98 16.594h2.865M31.754 10.863h2.866M9.547 22.326h1.432M21.725 2.982V33.07M18.692 2.1l3.391.63 3.391-.63a35 35 0 0 1 13.603.162l3.423.721v30.088l-3.816-.71a35.004 35.004 0 0 0-12.784 0l-3.817.71-3.816-.71a35.004 35.004 0 0 0-12.784 0l-3.816.71V2.983l3.423-.72A35 35 0 0 1 18.692 2.1Z"/>
    <path stroke="#262626" stroke-width="3" d="M80 80c-2.245-8.945-10.162-15.555-19.583-15.555-9.422 0-17.339 6.61-19.584 15.556M72.407 46.945c0 6.679-5.455 12.111-12.208 12.111s-12.208-5.432-12.208-12.11c0-6.68 5.455-12.112 12.208-12.112s12.208 5.432 12.208 12.111Z"/>
  </g>
  <defs>
    <clipPath id="a">
      <path fill="#fff" d="M0 0h80v80H0z"/>
    </clipPath>
  </defs>
</svg>
